logos/alpinejs.svg

<?xml version="1.0" encoding="UTF-8"?>
<svg width="512px" height="83px" viewBox="0 0 512 83" version="1.1" xmlns="http://www.w3.org/2000/svg" xmlns:xlink="http://www.w3.org/1999/xlink" preserveAspectRatio="xMidYMid">
    <title>Alpine.js</title>
    <g>
				<path d="M170.702881,61.10306 L173.733128,51.3066455 L192.952365,51.3066455 L195.982612,61.10306 L209.97156,61.10306 L192.246691,5.39633002 L175.352027,5.39633002 L156.589403,61.10306 L170.702881,61.10306 Z M189.922118,41.4687207 L177.095457,41.4687207 L183.612563,21.0871973 L189.922118,41.4687207 Z M231.764431,61.10306 L231.764431,3.81894125 L218.481157,3.81894125 L218.481157,61.10306 L231.764431,61.10306 Z M259.161183,80.9449503 L259.160429,59.3815175 L259.20193,59.419405 C259.618892,59.8046199 260.064944,60.1499851 260.540087,60.4555004 L260.780082,60.6049372 C262.800247,61.8225704 265.318534,62.4313873 268.334944,62.4313873 C271.79413,62.4313873 275.038847,61.573509 278.069093,59.857753 C281.09934,58.1419968 283.548444,55.6652197 285.416404,52.4274217 C287.284365,49.1896237 288.218345,45.2738252 288.218345,40.6800263 C288.218345,36.058554 287.298201,32.1289188 285.457915,28.8911207 C283.617628,25.6533227 281.23079,23.1765456 278.2974,21.4607894 C275.36401,19.7450332 272.26458,18.8871551 268.999108,18.8871551 C266.536168,18.8871551 264.211595,19.5167269 262.025389,20.7758706 C260.451321,21.682454 259.096029,22.9871372 257.959512,24.6899201 L257.795874,24.9408562 L256.71208,20.2154825 L245.877909,20.2154825 L245.877909,80.9449503 L259.161183,80.9449503 Z M266.217923,50.3103999 C264.944942,50.3103999 263.768819,50.0751752 262.689553,49.604726 C261.610287,49.1342767 260.752409,48.4839497 260.115919,47.6537451 C259.479429,46.8235405 259.161183,45.8549685 259.161183,44.748029 L259.160429,44.748029 L259.160429,38.0233715 L259.165334,37.7380579 C259.20131,36.5124914 259.471127,35.4272295 259.974784,34.4822721 L260.095163,34.2666956 C260.717817,33.2012664 261.582613,32.3779801 262.689553,31.7968369 C263.796493,31.2156937 265.055636,30.9251221 266.466984,30.9251221 C268.210414,30.9251221 269.711701,31.3263876 270.970844,32.1289188 C272.229987,32.9314499 273.205478,34.0660629 273.897315,35.5327577 C274.589153,36.9994525 274.935071,38.7152088 274.935071,40.6800263 C274.935071,43.0045993 274.47154,44.8725597 273.544478,46.2839075 C272.617417,47.6952554 271.482803,48.7191744 270.140639,49.3556646 C268.798475,49.9921548 267.490903,50.3103999 266.217923,50.3103999 Z M306.690398,14.9436831 C309.125665,14.9436831 311.048972,14.3002746 312.46032,13.0134574 C313.871668,11.7266402 314.577342,9.90710848 314.577342,7.55486203 C314.577342,5.25796261 313.871668,3.42459405 312.46032,2.05475643 C311.048972,0.684918811 309.125665,0 306.690398,0 C304.17211,0 302.228048,0.684918811 300.85821,2.05475643 C299.488373,3.42459405 298.803454,5.25796261 298.803454,7.55486203 C298.803454,9.90710848 299.488373,11.7266402 300.85821,13.0134574 C302.228048,14.3002746 304.17211,14.9436831 306.690398,14.9436831 Z M313.332035,61.10306 L313.332035,19.9664211 L300.048761,19.9664211 L300.048761,61.10306 L313.332035,61.10306 Z M341.891074,61.10306 L341.891074,43.8763141 L341.893432,43.4537074 C341.92488,40.6617727 342.270798,38.37871 342.931188,36.6045193 L343.032605,36.3422072 C343.793626,34.4465733 344.810626,33.0698173 346.083607,32.2119392 C347.356588,31.3540611 348.754098,30.9251221 350.27614,30.9251221 C351.770509,30.9251221 353.043489,31.4439999 354.095081,32.4817557 C355.146674,33.5195115 355.67247,35.1176554 355.67247,37.2761874 L355.67247,37.2761874 L355.67247,61.10306 L369.038765,61.10306 L369.038765,37.2761874 C369.038765,33.7063075 368.512968,30.5376933 367.461376,27.7703445 C366.409784,25.0029957 364.770129,22.830627 362.542413,21.2532382 C360.314697,19.6758495 357.443574,18.8871551 353.929041,18.8871551 C350.857283,18.8871551 348.11069,19.7450332 345.68926,21.4607894 C344.186303,22.5257415 342.880582,23.9691722 341.772095,25.7910814 L341.657862,25.9823856 L340.313685,20.2154825 L328.6078,20.2154825 L328.6078,61.10306 L341.891074,61.10306 Z M398.386498,62.4313873 C401.762663,62.4313873 404.744482,61.8225704 407.331953,60.6049372 C409.919423,59.3873038 412.022609,57.7407312 413.641508,55.6652197 C415.260407,53.5897082 416.277407,51.2789719 416.69251,48.7330111 L416.69251,48.7330111 L403.492256,48.7330111 C403.132501,49.8122771 402.496011,50.6009715 401.582786,51.0990943 C400.669561,51.5972171 399.604131,51.8462785 398.386498,51.8462785 C396.89213,51.8462785 395.653741,51.4934415 394.671332,50.7877676 C393.688923,50.0820936 392.948658,49.0927665 392.450535,47.8197861 C391.952412,46.5468056 391.703351,45.0386006 391.703351,43.2951709 L391.704105,43.3781913 L416.277407,43.3781913 C416.932832,40.4418887 417.060468,37.5863068 416.660314,34.8114456 L416.588734,34.3497161 C416.104448,31.4301632 415.080529,28.8081003 413.516977,26.4835273 C411.953425,24.1589544 409.898668,22.3117491 407.352708,20.9419115 C404.806747,19.5720739 401.818011,18.8871551 398.386498,18.8871551 C394.927312,18.8871551 391.689514,19.7450332 388.673104,21.4607894 C385.656693,23.1765456 383.221427,25.6464043 381.367303,28.8703656 C379.513179,32.0943269 378.586118,35.9616967 378.586118,40.4724752 C378.586118,44.9832536 379.520098,48.8852153 381.388058,52.1783603 C383.256019,55.4715053 385.698204,58.0036294 388.714614,59.7747326 C391.731024,61.545836 394.954985,62.4313873 398.386498,62.4313873 Z M404.695298,36.6535339 L391.762974,36.6535339 L391.763864,36.6420955 C391.864718,35.5068676 392.09164,34.4977078 392.444631,33.614616 L392.55431,33.3534706 C393.121617,32.0666534 393.924148,31.0842446 394.961904,30.4062442 C395.99966,29.7282438 397.224211,29.3892435 398.635559,29.3892435 C399.90854,29.3892435 400.953214,29.6452233 401.769582,30.1571828 C402.58595,30.6691423 403.215521,31.3471428 403.658297,32.1911841 C404.101073,33.0352254 404.398563,33.9553689 404.550767,34.9516145 C404.626869,35.4497372 404.673568,35.9444008 404.690864,36.4356052 L404.695298,36.6535339 Z M430.805988,61.8502441 C433.434969,61.8502441 435.607339,61.0546311 437.323095,59.4634058 C439.03885,57.8721803 439.896729,55.8450973 439.896729,53.382157 C439.896729,50.9192167 439.03885,48.8713785 437.323095,47.2386428 C435.607339,45.6059071 433.434969,44.7895392 430.805988,44.7895392 C428.177007,44.7895392 426.03923,45.6059071 424.392658,47.2386428 C422.746085,48.8713785 421.922799,50.9192167 421.922799,53.382157 C421.922799,55.8174239 422.746085,57.8375884 424.392658,59.4426507 C426.03923,61.0477132 428.177007,61.8502441 430.805988,61.8502441 Z M456.168739,14.9436831 C458.604007,14.9436831 460.527314,14.3002746 461.938661,13.0134574 C463.350009,11.7266402 464.055683,9.90710848 464.055683,7.55486203 C464.055683,5.25796261 463.350009,3.42459405 461.938661,2.05475643 C460.527314,0.684918811 458.604007,0 456.168739,0 C453.733472,0 451.796329,0.684918811 450.357307,2.05475643 C448.918285,3.42459405 448.198775,5.25796261 448.198775,7.55486203 C448.198775,9.90710848 448.918285,11.7266402 450.357307,13.0134574 C451.796329,14.3002746 453.733472,14.9436831 456.168739,14.9436831 Z M448.240285,82.3978084 C453.083146,82.3978084 456.749883,81.0763997 459.240496,78.4335814 C461.73111,75.7907631 462.976417,71.3284133 462.976417,65.0465319 L462.976417,65.0465319 L462.976417,20.0494415 L449.610123,20.0494415 L449.610123,64.7974705 C449.610123,67.1773902 449.188102,68.7686162 448.344061,69.5711471 C447.50002,70.3736779 446.22012,70.7749438 444.504364,70.7749438 C443.176037,70.7749438 441.737015,70.5812291 440.1873,70.1938005 C438.637585,69.806372 437.267748,69.3774324 436.077788,68.9069834 L436.077788,68.9069834 L436.077788,80.3222969 C437.987258,80.8480934 439.882892,81.3254611 441.764689,81.7543999 C443.646486,82.1833387 445.805018,82.3978084 448.240285,82.3978084 Z M494.02607,62.4313873 C497.457583,62.4313873 500.52934,61.7948974 503.241341,60.5219167 C505.953343,59.2489363 508.09112,57.5954454 509.654672,55.5614441 C511.218224,53.5274428 512,51.3758292 512,49.1066032 C512,46.6159894 511.197469,44.5404778 509.592407,42.8800686 C507.987344,41.2196593 505.787302,39.835985 502.99228,38.7290455 L502.99228,38.7290455 L491.701497,34.2044303 C489.958067,33.5956136 489.086353,32.7654089 489.086353,31.7138164 C489.086353,30.9389588 489.501455,30.3163053 490.331659,29.8458561 C491.161864,29.3754068 492.296477,29.1401821 493.735498,29.1401821 C495.478928,29.1401821 496.724235,29.4653456 497.471419,30.1156726 C498.218603,30.7659995 498.592195,31.5339388 498.592195,32.4194904 L498.592195,32.4194904 L510.754693,32.4194904 C510.727019,28.4898551 509.246488,25.2520571 506.313098,22.7060963 C503.379708,20.1601355 499.187175,18.8871551 493.735498,18.8871551 C487.924066,18.8871551 483.344104,20.0079313 479.995612,22.2494838 C476.64712,24.4910363 474.972874,27.4244259 474.972874,31.0496527 C474.972874,33.6232871 475.768487,35.8440844 477.359712,37.7120448 C478.950938,39.5800052 481.213245,41.1228022 484.146635,42.3404356 L484.146635,42.3404356 L494.06758,46.200887 C495.119172,46.6159894 495.89403,47.0310917 496.392153,47.446194 C496.890276,47.8612963 497.139337,48.414766 497.139337,49.1066032 C497.139337,49.6323995 496.95946,50.1236039 496.599704,50.5802164 C496.239949,51.036829 495.700316,51.4035026 494.980805,51.6802375 C494.261295,51.9569724 493.34807,52.0953398 492.24113,52.0953398 C490.41468,52.0953398 488.96874,51.8186049 487.903311,51.2651352 C486.837881,50.7116655 486.277493,49.71542 486.222147,48.2763986 L486.222147,48.2763986 L474.22569,48.2763986 C474.198016,51.4588497 475.021303,54.0947493 476.695549,56.1840976 C478.369794,58.2734459 480.701286,59.8369979 483.690022,60.8747537 C486.678759,61.9125095 490.124108,62.4313873 494.02607,62.4313873 Z" fill="#2D3441"></path>
				<g transform="translate(0.000000, 1.707789)">
						<polygon fill="#77C1D2" points="105.324552 0 135.417281 29.9607434 105.324552 59.9214868 75.2318225 29.9607434"></polygon>
						<polygon fill="#2D3441" points="30.092729 0 92.4787181 62.1123661 32.2932599 62.1123661 0 29.9607434"></polygon>
				</g>
    </g>
</svg>

<svg preserveAspectRatio="xMidYMid" viewBox="0 0 512 83" xmlns="http://www.w3.org/2000/svg">
  <path fill="#2D3441" d="m170.703 61.103 3.03-9.796h19.22l3.03 9.796h13.989L192.247 5.396h-16.895l-18.763 55.707h14.114Zm19.22-19.634h-12.828l6.518-20.382 6.31 20.382Zm41.841 19.634V3.82h-13.283v57.284h13.283Zm27.397 19.842V59.382l.04.037c.418.386.864.731 1.34 1.037l.24.149c2.02 1.218 4.538 1.826 7.554 1.826 3.46 0 6.704-.857 9.734-2.573 3.03-1.716 5.48-4.193 7.347-7.43 1.868-3.238 2.802-7.154 2.802-11.748 0-4.621-.92-8.551-2.76-11.789-1.84-3.238-4.227-5.714-7.16-7.43-2.934-1.716-6.033-2.574-9.299-2.574-2.463 0-4.787.63-6.974 1.889-1.574.906-2.929 2.211-4.065 3.914l-.164.25-1.084-4.725h-10.834v60.73h13.283Zm7.057-30.635c-1.273 0-2.45-.235-3.528-.705-1.08-.47-1.938-1.121-2.574-1.951-.637-.83-.955-1.799-.955-2.906v-6.725l.004-.285c.036-1.226.306-2.31.81-3.256l.12-.215a6.375 6.375 0 0 1 2.595-2.47c1.106-.581 2.366-.872 3.777-.872 1.743 0 3.245.401 4.504 1.204 1.259.802 2.234 1.937 2.926 3.404.692 1.466 1.038 3.182 1.038 5.147 0 2.325-.463 4.193-1.39 5.604-.928 1.411-2.062 2.435-3.404 3.072-1.343.636-2.65.954-3.923.954Zm40.472-35.366c2.436 0 4.359-.644 5.77-1.93 1.412-1.287 2.117-3.107 2.117-5.46 0-2.296-.705-4.13-2.117-5.5C311.05.685 309.126 0 306.69 0c-2.518 0-4.462.685-5.832 2.055s-2.055 3.203-2.055 5.5c0 2.352.685 4.172 2.055 5.458 1.37 1.287 3.314 1.93 5.832 1.93Zm6.642 46.16V19.965h-13.283v41.137h13.283Zm28.56 0V43.875l.001-.422c.032-2.792.378-5.075 1.038-6.85l.102-.262c.76-1.895 1.778-3.272 3.05-4.13a7.345 7.345 0 0 1 4.193-1.287c1.495 0 2.767.519 3.82 1.557 1.05 1.038 1.576 2.636 1.576 4.794v23.827h13.367V37.276c0-3.57-.526-6.738-1.578-9.506-1.051-2.767-2.69-4.94-4.919-6.517-2.227-1.577-5.098-2.366-8.613-2.366-3.072 0-5.818.858-8.24 2.574-1.503 1.065-2.808 2.508-3.917 4.33l-.114.191-1.344-5.767h-11.706v40.888h13.283Zm56.494 1.327c3.377 0 6.358-.608 8.946-1.826 2.587-1.218 4.69-2.864 6.31-4.94 1.618-2.075 2.635-4.386 3.05-6.932h-13.2c-.36 1.08-.996 1.868-1.91 2.366-.912.498-1.978.747-3.196.747-1.494 0-2.732-.353-3.715-1.058-.982-.706-1.722-1.695-2.22-2.968-.499-1.273-.748-2.781-.748-4.525l.001.083h24.573c.656-2.936.783-5.792.383-8.567l-.071-.461c-.485-2.92-1.508-5.542-3.072-7.866-1.564-2.325-3.618-4.172-6.164-5.542s-5.535-2.055-8.967-2.055c-3.459 0-6.696.858-9.713 2.574-3.016 1.716-5.452 4.185-7.306 7.41-1.854 3.223-2.78 7.09-2.78 11.601 0 4.511.933 8.413 2.801 11.706 1.868 3.294 4.31 5.826 7.327 7.597 3.016 1.77 6.24 2.656 9.671 2.656Zm6.31-25.777h-12.933v-.012c.102-1.135.329-2.144.682-3.027l.11-.262c.567-1.286 1.37-2.269 2.407-2.947 1.038-.678 2.262-1.017 3.674-1.017 1.273 0 2.317.256 3.134.768a5.233 5.233 0 0 1 1.888 2.034 8.75 8.75 0 0 1 .893 2.76c.076.499.123.993.14 1.485l.004.218Zm26.11 25.196c2.629 0 4.801-.795 6.517-2.387 1.716-1.59 2.574-3.618 2.574-6.08 0-2.464-.858-4.512-2.574-6.144-1.716-1.633-3.888-2.45-6.517-2.45-2.629 0-4.767.817-6.413 2.45-1.647 1.632-2.47 3.68-2.47 6.143 0 2.435.823 4.456 2.47 6.06 1.646 1.606 3.784 2.408 6.413 2.408Zm25.363-46.906c2.435 0 4.358-.644 5.77-1.93 1.411-1.287 2.117-3.107 2.117-5.46 0-2.296-.706-4.13-2.117-5.5C460.527.685 458.604 0 456.169 0c-2.436 0-4.373.685-5.812 2.055s-2.158 3.203-2.158 5.5c0 2.352.72 4.172 2.158 5.458 1.44 1.287 3.376 1.93 5.812 1.93Zm-7.929 67.454c4.843 0 8.51-1.322 11-3.964 2.491-2.643 3.736-7.106 3.736-13.387V20.049H449.61v44.748c0 2.38-.422 3.972-1.266 4.774-.844.803-2.124 1.204-3.84 1.204-1.328 0-2.767-.194-4.317-.581-1.55-.388-2.92-.817-4.11-1.287v11.415a131.48 131.48 0 0 0 5.688 1.432c1.881.43 4.04.644 6.475.644Zm45.786-19.967c3.432 0 6.503-.636 9.215-1.91 2.712-1.272 4.85-2.926 6.414-4.96 1.563-2.034 2.345-4.185 2.345-6.454 0-2.491-.803-4.567-2.408-6.227-1.605-1.66-3.805-3.044-6.6-4.151l-11.29-4.525c-1.744-.608-2.616-1.439-2.616-2.49 0-.775.415-1.398 1.246-1.868.83-.47 1.964-.706 3.403-.706 1.744 0 2.99.325 3.736.976.748.65 1.121 1.418 1.121 2.303h12.163c-.028-3.93-1.509-7.167-4.442-9.713-2.933-2.546-7.126-3.819-12.578-3.819-5.81 0-10.39 1.12-13.74 3.362-3.348 2.242-5.022 5.175-5.022 8.8 0 2.574.795 4.795 2.387 6.663 1.59 1.868 3.853 3.41 6.787 4.628l9.92 3.86c1.052.416 1.827.831 2.325 1.246.498.415.747.969.747 1.66 0 .526-.18 1.018-.54 1.474-.36.457-.899.824-1.618 1.1-.72.277-1.633.415-2.74.415-1.826 0-3.272-.276-4.338-.83-1.065-.553-1.626-1.55-1.68-2.989h-11.997c-.028 3.183.795 5.819 2.47 7.908 1.674 2.09 4.005 3.653 6.994 4.69 2.989 1.039 6.434 1.557 10.336 1.557Z"/>
  <path fill="#77C1D2" d="m105.325 1.708 30.092 29.96-30.092 29.961-30.093-29.96z"/>
  <path fill="#2D3441" d="M30.093 1.708 92.479 63.82H32.293L0 31.67z"/>
</svg>
